X:214
T:The Light of Other Days
O:No 214 Page 105 William Clarke of Feltwell
M:4/4
L:1/8
N:This is an Irish tune (and song?)composed by Michael Balfe (1808-1870).
N:In bar 20 between the 1st and 2nd notes are the letters Sg - assumed to be short for "Segue". Is this part to the end played between verses?
N:Below bar 20 is the instruction "dolce".
K:D
AA|A3d fedc|B4A2(d>e)|f2(f>g)a2e>f|d2z2z2A2|A3d fedc|B4A2(d>e)|f2f>ga2(e>f)|d2z2z2d2|g3d dcde|f4d3d|d3de3e|He6AA|A3d fedc|B4A2(d>e)|f2f>ga2e>f|g6ag|f3e dcde|(f4(3fef) ((3gab)|(b2b/a/)(c/d/) (f/e/Hg2)f|d3"segue""Dolce"(d fedc)|B4A2(d>e)|f2(f.g)a2e.f|d2d2d2:|

